svgs/sharp-regular/mug-tea-saucer.svg

<svg xmlns="http://www.w3.org/2000/svg" viewBox="0 0 640 512"><!--! Font Awesome Pro 6.6.0 by @fontawesome - https://fontawesome.com License - https://fontawesome.com/license (Commercial License) Copyright 2024 Fonticons, Inc. --><path d="M144 80l0 256 288 0 0-256L248 80l0 24 40 40 0 112-112 0 0-112 40-40 0-24-72 0zM96 32l48 0 288 0 16 0 32 0 32 0c70.7 0 128 57.3 128 128s-57.3 128-128 128l-32 0 0 48 0 48-48 0-288 0-48 0 0-48L96 80l0-48zM480 240l32 0c44.2 0 80-35.8 80-80s-35.8-80-80-80l-32 0 0 160zM24 432l528 0 24 0 0 48-24 0L24 480 0 480l0-48 24 0z"/></svg>

<svg xmlns="http://www.w3.org/2000/svg" viewBox="0 0 640 512"><!--! Font Awesome Pro 6.4.2 by @fontawesome - https://fontawesome.com License - https://fontawesome.com/license (Commercial License) Copyright 2023 Fonticons, Inc. --><path d="M144 80V336H432V80H248v24l40 40V256H176V144l40-40V80H144zM96 32h48H432h16 32 32c70.7 0 128 57.3 128 128s-57.3 128-128 128H480v48 48H432 144 96V336 80 32zM480 240h32c44.2 0 80-35.8 80-80s-35.8-80-80-80H480V240zM24 432H552h24v48H552 24 0V432H24z"/></svg>
